X: 8039
T: Connie In The Pool
R: polka
M: 2/4
K: Amajor
|:Ac|e>f ed|cd ec|d/e/d/c/ dc|Bc df|
e>f ed|cd ec|d/e/d/c/ dB|A2:|
|:Ae|ae cA|GA Bc|d/e/d/c/ de|fe ce|
ae cA|GA Bc|d/e/d/c/ dB|A2:|

